X:1
T: Kitty Clover's Reel
C:
R:Reel
Q: 232
K:D
M:4/4
L:1/8
A|dc dA BE E2|BE E2 FD FA|dc dA BE E2|FA AG FD FA|
dc dA BE E2|BE E2 FD FA|dc dA BE E2|FA AG FD FA|
|:BA Bc d2 fd|BA Bc dA FA|BA Bc d2 eg|fd ec dA FA|
BA Bc d2 fd|BA Bc dA FA|BA Bc d2 eg|fa ec dA FA:|
dc dA BE E2|BE E2 FD FA|dc dA BE E2|FA AG FD FA|
dc dA BE E2|BE E2 FD FA|dc dA BE E2|FA AG FD D||
